images/svg/akar-icons_twitter-fill.svg

<svg width="24" height="20" viewBox="0 0 24 20" fill="none" xmlns="http://www.w3.org/2000/svg">
<path d="M23.4922 2.70559C22.6362 3.08495 21.7165 3.34128 20.7495 3.45713C21.7472 2.8602 22.4936 1.92069 22.8494 0.813926C21.9121 1.37065 20.8862 1.76253 19.8166 1.97251C19.0972 1.20443 18.1444 0.69532 17.106 0.524252C16.0677 0.353184 15.0018 0.529703 14.0741 1.02642C13.1463 1.52314 12.4086 2.31225 11.9753 3.27125C11.542 4.23025 11.4374 5.30548 11.6778 6.33C9.7786 6.23465 7.92072 5.74102 6.22467 4.88116C4.52863 4.02131 3.03233 2.81444 1.8329 1.33888C1.42279 2.04633 1.18696 2.86656 1.18696 3.74011C1.18651 4.52652 1.38017 5.30086 1.75075 5.99446C2.12134 6.68806 2.65741 7.27947 3.31138 7.7162C2.55294 7.69207 1.81125 7.48714 1.14801 7.11846V7.17998C1.14793 8.28293 1.52945 9.35193 2.22783 10.2056C2.9262 11.0593 3.89843 11.645 4.97953 11.8635C4.27596 12.0539 3.53832 12.0819 2.82231 11.9455C3.12733 12.8946 3.72149 13.7244 4.5216 14.3191C5.32171 14.9136 6.28772 15.2431 7.2844 15.2613C5.59249 16.5896 3.50299 17.3099 1.35204 17.3067C0.971026 17.3069 0.59033 17.2846 0.211914 17.2402C2.39526 18.644 4.93682 19.389 7.53251 19.386C16.3193 19.386 21.1228 12.1085 21.1228 5.79685C21.1228 5.59179 21.1177 5.38469 21.1084 5.17962C22.0428 4.50393 22.8493 3.66721 23.4902 2.70867L23.4922 2.70559Z" fill="white"/>
</svg>

<svg xmlns="http://www.w3.org/2000/svg" width="24" height="20" fill="none"><path fill="#fff" d="M23.492 2.706a9.562 9.562 0 0 1-2.742.751 4.788 4.788 0 0 0 2.1-2.643 9.536 9.536 0 0 1-3.033 1.159 4.778 4.778 0 0 0-8.14 4.357 13.563 13.563 0 0 1-9.844-4.991A4.778 4.778 0 0 0 3.31 7.716a4.764 4.764 0 0 1-2.163-.598v.062a4.778 4.778 0 0 0 3.832 4.684 4.811 4.811 0 0 1-2.158.081 4.78 4.78 0 0 0 4.462 3.316 9.583 9.583 0 0 1-5.932 2.046 9.74 9.74 0 0 1-1.14-.067 13.507 13.507 0 0 0 7.32 2.146c8.787 0 13.59-7.277 13.59-13.59 0-.204-.004-.411-.014-.616a9.709 9.709 0 0 0 2.382-2.471l.002-.003Z"/></svg>
